pix_core/t/sort_desc.svg

<svg preserveAspectRatio="xMinYMid meet" viewBox="0 0 576 512" xmlns="http://www.w3.org/2000/svg"><path d="m151.6 469.6c-6.1 6.6-14.6 10.4-23.6 10.4s-17.5-3.8-23.6-10.4l-88-96c-11.9-13-11.1-33.3 2-45.2s33.3-11.1 45.2 2l32.4 35.3v-301.7c0-17.7 14.3-32 32-32s32 14.3 32 32v301.7l32.4-35.4c11.9-13 32.2-13.9 45.2-2s13.9 32.2 2 45.2l-88 96zm168.4-437.6h32c17.7 0 32 14.3 32 32s-14.3 32-32 32h-32c-17.7 0-32-14.3-32-32s14.3-32 32-32zm0 128h96c17.7 0 32 14.3 32 32s-14.3 32-32 32h-96c-17.7 0-32-14.3-32-32s14.3-32 32-32zm0 128h160c17.7 0 32 14.3 32 32s-14.3 32-32 32h-160c-17.7 0-32-14.3-32-32s14.3-32 32-32zm0 128h224c17.7 0 32 14.3 32 32s-14.3 32-32 32h-224c-17.7 0-32-14.3-32-32s14.3-32 32-32z" fill="#fff"/></svg>

<svg xmlns="http://www.w3.org/2000/svg" viewBox="0 0 576 512" preserveAspectRatio="xMinYMid meet"><!--!Font Awesome Free 6.5.2 by @fontawesome - https://fontawesome.com License - https://fontawesome.com/license/free Copyright 2024 Fonticons, Inc.--><path fill="#fff" d="M151.6 469.6C145.5 476.2 137 480 128 480s-17.5-3.8-23.6-10.4l-88-96c-11.9-13-11.1-33.3 2-45.2s33.3-11.1 45.2 2L96 365.7V64c0-17.7 14.3-32 32-32s32 14.3 32 32V365.7l32.4-35.4c11.9-13 32.2-13.9 45.2-2s13.9 32.2 2 45.2l-88 96zM320 32h32c17.7 0 32 14.3 32 32s-14.3 32-32 32H320c-17.7 0-32-14.3-32-32s14.3-32 32-32zm0 128h96c17.7 0 32 14.3 32 32s-14.3 32-32 32H320c-17.7 0-32-14.3-32-32s14.3-32 32-32zm0 128H480c17.7 0 32 14.3 32 32s-14.3 32-32 32H320c-17.7 0-32-14.3-32-32s14.3-32 32-32zm0 128H544c17.7 0 32 14.3 32 32s-14.3 32-32 32H320c-17.7 0-32-14.3-32-32s14.3-32 32-32z"/></svg>
